Numix/16/status/indicator-keyboard-Is.svg

<?xml version="1.0" encoding="UTF-8" standalone="no"?>
<svg
   xmlns:dc="http://purl.org/dc/elements/1.1/"
   xmlns:cc="http://creativecommons.org/ns#"
   xmlns:rdf="http://www.w3.org/1999/02/22-rdf-syntax-ns#"
   xmlns:svg="http://www.w3.org/2000/svg"
   xmlns="http://www.w3.org/2000/svg"
   xmlns:sodipodi="http://sodipodi.sourceforge.net/DTD/sodipodi-0.dtd"
   xmlns:inkscape="http://www.inkscape.org/namespaces/inkscape"
   viewBox="0 0 16 16"
   id="svg2"
   version="1.1"
   inkscape:version="0.91 r13725"
   sodipodi:docname="indicator-keyboard-Is.svg">
  <metadata
     id="metadata13">
    <rdf:RDF>
      <cc:Work
         rdf:about="">
        <dc:format>image/svg+xml</dc:format>
        <dc:type
           rdf:resource="http://purl.org/dc/dcmitype/StillImage" />
      </cc:Work>
    </rdf:RDF>
  </metadata>
  <defs
     id="defs11" />
  <sodipodi:namedview
     pagecolor="#ffffff"
     bordercolor="#666666"
     borderopacity="1"
     objecttolerance="10"
     gridtolerance="10"
     guidetolerance="10"
     inkscape:pageopacity="0"
     inkscape:pageshadow="2"
     inkscape:window-width="640"
     inkscape:window-height="480"
     id="namedview9"
     showgrid="false"
     inkscape:zoom="14.75"
     inkscape:cx="8"
     inkscape:cy="8"
     inkscape:window-x="65"
     inkscape:window-y="24"
     inkscape:window-maximized="0"
     inkscape:current-layer="svg2" />
  <path
     style="fill:#ececec;fill-opacity:1"
     d="M 1.5996094 0 C 0.71320937 2.9605947e-16 0 0.71320937 0 1.5996094 L 0 14.400391 C 2.9605947e-16 15.286791 0.71320937 16 1.5996094 16 L 14.400391 16 C 15.286791 16 16 15.286791 16 14.400391 L 16 1.5996094 C 16 0.71320937 15.286791 0 14.400391 0 L 1.5996094 0 z M 5.5429688 4.828125 L 6.1542969 4.828125 L 6.1542969 11.064453 L 5.5429688 11.064453 L 5.5429688 4.828125 z M 9 6.3027344 C 9.318 6.3027344 9.57725 6.3307656 9.78125 6.3847656 C 9.9912501 6.4387656 10.138656 6.4872969 10.222656 6.5292969 L 10.087891 7.0507812 C 10.015891 7.0147813 9.89275 6.96625 9.71875 6.90625 C 9.55075 6.84625 9.3026563 6.8164062 8.9726562 6.8164062 C 8.8406562 6.8164062 8.71375 6.8313281 8.59375 6.8613281 C 8.47975 6.8853281 8.3790625 6.9282812 8.2890625 6.9882812 C 8.1990625 7.0422813 8.1262656 7.113125 8.0722656 7.203125 C 8.0182656 7.287125 7.9902344 7.3915781 7.9902344 7.5175781 C 7.9902344 7.6435781 8.0145 7.7517969 8.0625 7.8417969 C 8.1105 7.9317969 8.1795313 8.0139375 8.2695312 8.0859375 C 8.3655312 8.1519375 8.4793281 8.2153906 8.6113281 8.2753906 C 8.7493281 8.3353906 8.9060781 8.4006563 9.0800781 8.4726562 C 9.2600781 8.5446562 9.43175 8.6192656 9.59375 8.6972656 C 9.76175 8.7692656 9.9091562 8.8587969 10.035156 8.9667969 C 10.161156 9.0687969 10.261844 9.1957031 10.339844 9.3457031 C 10.417844 9.4897031 10.457031 9.6725313 10.457031 9.8945312 C 10.457031 10.314531 10.298469 10.631656 9.9804688 10.847656 C 9.6684688 11.063656 9.2393594 11.171875 8.6933594 11.171875 C 8.2853594 11.171875 7.9738125 11.136453 7.7578125 11.064453 C 7.5418125 10.998453 7.3981719 10.948109 7.3261719 10.912109 L 7.4785156 10.380859 C 7.4965156 10.392859 7.5357031 10.413359 7.5957031 10.443359 C 7.6557031 10.467359 7.7358906 10.497203 7.8378906 10.533203 C 7.9398906 10.563203 8.0592656 10.591234 8.1972656 10.615234 C 8.3412656 10.639234 8.5073594 10.650391 8.6933594 10.650391 C 9.0293594 10.650391 9.3054844 10.596281 9.5214844 10.488281 C 9.7434844 10.374281 9.8535156 10.185875 9.8535156 9.921875 C 9.8535156 9.795875 9.8330156 9.6876563 9.7910156 9.5976562 C 9.7550156 9.5076562 9.6915625 9.4274688 9.6015625 9.3554688 C 9.5115625 9.2834687 9.3921875 9.2144375 9.2421875 9.1484375 C 9.0981875 9.0824375 8.919125 9.0040625 8.703125 8.9140625 C 8.529125 8.8420625 8.3630312 8.7692656 8.2070312 8.6972656 C 8.0510312 8.6192656 7.9129688 8.5315469 7.7929688 8.4355469 C 7.6729688 8.3335469 7.5778594 8.2141719 7.5058594 8.0761719 C 7.4338594 7.9381719 7.3964844 7.7702656 7.3964844 7.5722656 C 7.3964844 7.1942656 7.5383125 6.8882969 7.8203125 6.6542969 C 8.1083125 6.4202969 8.502 6.3027344 9 6.3027344 z "
     id="path4" />
</svg>

<svg xmlns="http://www.w3.org/2000/svg" viewBox="0 0 16 16">
 <path d="m 1.6 0 c -0.886 0 -1.6 0.713 -1.6 1.6 l 0 12.801 c 0 0.886 0.713 1.6 1.6 1.6 l 12.801 0 c 0.886 0 1.6 -0.713 1.6 -1.6 l 0 -12.801 c 0 -0.886 -0.713 -1.6 -1.6 -1.6 l -12.801 0 z m 3.943 4.828 l 0.611 0 l 0 6.236 l -0.611 0 l 0 -6.236 z m 3.457 1.475 c 0.318 0 0.577 0.028 0.781 0.082 c 0.21 0.054 0.357 0.103 0.441 0.145 l -0.135 0.521 c -0.072 -0.036 -0.195 -0.085 -0.369 -0.145 c -0.168 -0.06 -0.416 -0.09 -0.746 -0.09 c -0.132 0 -0.259 0.015 -0.379 0.045 c -0.114 0.024 -0.215 0.067 -0.305 0.127 c -0.09 0.054 -0.163 0.125 -0.217 0.215 c -0.054 0.084 -0.082 0.188 -0.082 0.314 c 0 0.126 0.024 0.234 0.072 0.324 c 0.048 0.09 0.117 0.172 0.207 0.244 c 0.096 0.066 0.21 0.129 0.342 0.189 c 0.138 0.06 0.295 0.125 0.469 0.197 c 0.18 0.072 0.352 0.147 0.514 0.225 c 0.168 0.072 0.315 0.162 0.441 0.27 c 0.126 0.102 0.227 0.229 0.305 0.379 c 0.078 0.144 0.117 0.327 0.117 0.549 c 0 0.42 -0.159 0.737 -0.477 0.953 c -0.312 0.216 -0.741 0.324 -1.287 0.324 c -0.408 0 -0.72 -0.035 -0.936 -0.107 c -0.216 -0.066 -0.36 -0.116 -0.432 -0.152 l 0.152 -0.531 c 0.018 0.012 0.057 0.033 0.117 0.063 c 0.06 0.024 0.14 0.054 0.242 0.09 c 0.102 0.03 0.221 0.058 0.359 0.082 c 0.144 0.024 0.31 0.035 0.496 0.035 c 0.336 0 0.612 -0.054 0.828 -0.162 c 0.222 -0.114 0.332 -0.302 0.332 -0.566 c 0 -0.126 -0.021 -0.234 -0.063 -0.324 c -0.036 -0.09 -0.099 -0.17 -0.189 -0.242 c -0.09 -0.072 -0.209 -0.141 -0.359 -0.207 c -0.144 -0.066 -0.323 -0.144 -0.539 -0.234 c -0.174 -0.072 -0.34 -0.145 -0.496 -0.217 c -0.156 -0.078 -0.294 -0.166 -0.414 -0.262 c -0.12 -0.102 -0.215 -0.221 -0.287 -0.359 c -0.072 -0.138 -0.109 -0.306 -0.109 -0.504 c 0 -0.378 0.142 -0.684 0.424 -0.918 c 0.288 -0.234 0.682 -0.352 1.18 -0.352 z" style="fill:#ececec;fill-opacity:1"/>
</svg>
